svg/fluentui-system-icons/ic_fluent_share_close_tray_20_filled.svg

<svg width="20" height="20" viewBox="0 0 20 20" fill="none" xmlns="http://www.w3.org/2000/svg">
<path d="M4 16C2.89543 16 2 15.1046 2 14V6C2 4.89543 2.89543 4 4 4H16C17.1046 4 18 4.89543 18 6V14C18 15.1046 17.1046 16 16 16H4ZM10 6C9.72386 6 9.5 6.22386 9.5 6.5L9.5 12.2929L7.85355 10.6464C7.65829 10.4512 7.34171 10.4512 7.14645 10.6464C6.95118 10.8417 6.95118 11.1583 7.14645 11.3536L9.64645 13.8536C9.84171 14.0488 10.1583 14.0488 10.3536 13.8536L12.8536 11.3536C13.0488 11.1583 13.0488 10.8417 12.8536 10.6464C12.6583 10.4512 12.3417 10.4512 12.1464 10.6464L10.5 12.2929L10.5 6.5C10.5 6.22386 10.2761 6 10 6Z" fill="#212121"/>
</svg>

<svg xmlns="http://www.w3.org/2000/svg" width="20" height="20"><path d="M4 16a2 2 0 0 1-2-2V6a2 2 0 0 1 2-2h12a2 2 0 0 1 2 2v8a2 2 0 0 1-2 2H4Zm6-10a.5.5 0 0 0-.5.5v5.793l-1.646-1.647a.5.5 0 0 0-.708.708l2.5 2.5a.5.5 0 0 0 .708 0l2.5-2.5a.5.5 0 0 0-.708-.708L10.5 12.293V6.5A.5.5 0 0 0 10 6Z"/></svg>
